source/img/about-us/smm-element-4.svg

<svg width="72" height="72" viewBox="0 0 72 72" fill="none" xmlns="http://www.w3.org/2000/svg">
<g clip-path="url(#clip0)">
<path d="M51.4046 27.6445V44.1797C51.4046 46.1157 50.6363 47.9725 49.2687 49.3414C47.9011 50.7104 46.0463 51.4795 44.1122 51.4795H27.5971C25.663 51.4795 23.8082 50.7104 22.4406 49.3414C21.073 47.9725 20.3047 46.1157 20.3047 44.1797V27.6445C20.3047 25.7085 21.073 23.8518 22.4406 22.4828C23.8082 21.1138 25.663 20.3447 27.5971 20.3447H44.1155C46.0496 20.3447 47.9044 21.1138 49.272 22.4828C50.6396 23.8518 51.4079 25.7085 51.4079 27.6445H51.4046Z" fill="url(#paint0_linear)"/>
<path d="M40.6536 24.5127H31.0125C30.148 24.5126 29.2919 24.6829 28.4932 25.014C27.6945 25.3451 26.9687 25.8305 26.3574 26.4424C25.7461 27.0543 25.2612 27.7808 24.9305 28.5803C24.5997 29.3798 24.4295 30.2368 24.4297 31.1022V40.753C24.4295 41.6184 24.5997 42.4753 24.9305 43.2749C25.2612 44.0744 25.7461 44.8009 26.3574 45.4128C26.9687 46.0247 27.6945 46.5101 28.4932 46.8412C29.2919 47.1723 30.148 47.3426 31.0125 47.3425H40.6536C42.3994 47.3425 44.0738 46.6482 45.3083 45.4125C46.5428 44.1767 47.2363 42.5006 47.2363 40.753V31.1022C47.2363 29.3545 46.5428 27.6785 45.3083 26.4427C44.0738 25.2069 42.3994 24.5127 40.6536 24.5127ZM45.136 40.9222C45.136 42.0823 44.6756 43.1949 43.8561 44.0152C43.0366 44.8355 41.9252 45.2964 40.7662 45.2964H30.8998C29.7409 45.2964 28.6294 44.8355 27.8099 44.0152C26.9904 43.1949 26.53 42.0823 26.53 40.9222V31.0458C26.53 29.8857 26.9904 28.7731 27.8099 27.9527C28.6294 27.1324 29.7409 26.6716 30.8998 26.6716H40.7662C41.9252 26.6716 43.0366 27.1324 43.8561 27.9527C44.6756 28.7731 45.136 29.8857 45.136 31.0458V40.9222Z" fill="white"/>
<path d="M35.8356 30.061C34.6652 30.061 33.5211 30.4085 32.548 31.0594C31.5748 31.7103 30.8163 32.6354 30.3684 33.7178C29.9205 34.8002 29.8033 35.9913 30.0317 37.1404C30.26 38.2894 30.8236 39.3449 31.6512 40.1734C32.4788 41.0018 33.5332 41.566 34.6812 41.7945C35.8291 42.0231 37.0189 41.9058 38.1002 41.4575C39.1815 41.0091 40.1058 40.2499 40.756 39.2757C41.4062 38.3016 41.7533 37.1563 41.7533 35.9847C41.7533 34.4136 41.1298 32.9069 40.0201 31.796C38.9103 30.6851 37.4051 30.061 35.8356 30.061ZM35.8356 39.8247C35.0769 39.8247 34.3353 39.5995 33.7044 39.1775C33.0736 38.7556 32.5819 38.1559 32.2915 37.4542C32.0012 36.7525 31.9252 35.9804 32.0733 35.2356C32.2213 34.4907 32.5866 33.8065 33.1231 33.2694C33.6596 32.7324 34.3431 32.3667 35.0873 32.2185C35.8314 32.0703 36.6027 32.1464 37.3036 32.437C38.0046 32.7277 38.6037 33.2198 39.0252 33.8513C39.4468 34.4828 39.6717 35.2252 39.6717 35.9847C39.6719 36.489 39.5728 36.9884 39.38 37.4544C39.1873 37.9203 38.9047 38.3437 38.5485 38.7003C38.1922 39.0569 37.7693 39.3398 37.3038 39.5327C36.8383 39.7256 36.3394 39.8248 35.8356 39.8247Z" fill="white"/>
<path d="M41.9476 28.4561C41.6748 28.4561 41.408 28.537 41.1812 28.6887C40.9544 28.8404 40.7776 29.0561 40.6732 29.3083C40.5689 29.5606 40.5416 29.8382 40.5949 30.1059C40.6482 30.3737 40.7797 30.6196 40.9727 30.8126C41.1657 31.0056 41.4116 31.1369 41.6792 31.1901C41.9468 31.2432 42.2242 31.2157 42.4762 31.1111C42.7282 31.0064 42.9435 30.8294 43.0949 30.6022C43.2463 30.3751 43.327 30.1082 43.3268 29.8351C43.3268 29.6539 43.2911 29.4745 43.2218 29.3071C43.1525 29.1397 43.0509 28.9877 42.9228 28.8596C42.7947 28.7315 42.6426 28.63 42.4753 28.5607C42.308 28.4915 42.1287 28.4559 41.9476 28.4561Z" fill="white"/>
<path d="M67.265 35.7729C67.265 53.5254 53.1364 67.9087 35.7175 67.9087C18.2985 67.9087 4.16992 53.5254 4.16992 35.7729C4.16992 18.0205 18.2985 3.63721 35.7175 3.63721C53.1364 3.63721 67.265 18.0205 67.265 35.7729Z" fill="#FFC9E7" fill-opacity="0.3" stroke="#E4829E" stroke-width="0.5"/>
<g filter="url(#filter0_f)">
<path d="M21.4158 16.0399C25.9978 13.955 25.9696 11.852 25.5994 10.9254C24.4885 9.67456 23.5484 10.0551 22.267 10.3695C20.5861 10.7819 18.1387 13.0524 16.0188 15.0951C13.9591 17.0797 10.6382 21.6422 10.5839 23.5405C10.536 25.2135 11.4349 26.4875 11.8515 25.0976C12.268 23.7077 16.1903 18.4175 21.4158 16.0399Z" fill="white"/>
</g>
<path d="M22.8819 63.661C37.5437 68.1011 64.774 61.7819 64.9148 30.0744C69.0223 47.0459 53.1058 74.579 22.8819 63.661Z" fill="#FFCBE8"/>
</g>
<defs>
<filter id="filter0_f" x="9.58203" y="9.05859" width="17.1667" height="17.6318" filterUnits="userSpaceOnUse" color-interpolation-filters="sRGB">
<feFlood flood-opacity="0" result="BackgroundImageFix"/>
<feBlend mode="normal" in="SourceGraphic" in2="BackgroundImageFix" result="shape"/>
<feGaussianBlur stdDeviation="0.5" result="effect1_foregroundBlur"/>
</filter>
<linearGradient id="paint0_linear" x1="43.4901" y1="22.1719" x2="27.713" y2="50.5015" gradientUnits="userSpaceOnUse">
<stop stop-color="#4845A2"/>
<stop offset="0.19" stop-color="#8744A1"/>
<stop offset="0.3" stop-color="#A844A1"/>
<stop offset="0.35" stop-color="#AB429A"/>
<stop offset="0.42" stop-color="#B43C88"/>
<stop offset="0.51" stop-color="#C33269"/>
<stop offset="0.6" stop-color="#D7243E"/>
<stop offset="0.88" stop-color="#F9A326"/>
<stop offset="1" stop-color="#F9DD26"/>
</linearGradient>
<clipPath id="clip0">
<rect width="72" height="72" fill="white"/>
</clipPath>
</defs>
</svg>

<svg width="72" height="72" fill="none" xmlns="http://www.w3.org/2000/svg"><g clip-path="url(#clip0)"><path d="M51.405 27.645V44.18a7.303 7.303 0 01-2.136 5.161 7.289 7.289 0 01-5.157 2.139H27.597a7.289 7.289 0 01-5.156-2.139 7.303 7.303 0 01-2.136-5.161V27.645c0-1.936.768-3.793 2.136-5.162a7.289 7.289 0 015.156-2.138h16.518c1.935 0 3.79.769 5.157 2.138a7.304 7.304 0 012.136 5.162h-.003z" fill="url(#paint0_linear)"/><path d="M40.654 24.513h-9.642a6.577 6.577 0 00-6.082 4.067c-.33.8-.5 1.657-.5 2.522v9.651a6.593 6.593 0 004.063 6.088 6.577 6.577 0 002.52.502h9.64a6.58 6.58 0 004.655-1.93 6.593 6.593 0 001.928-4.66v-9.65a6.593 6.593 0 00-1.928-4.66 6.58 6.58 0 00-4.654-1.93zm4.482 16.41c0 1.16-.46 2.272-1.28 3.092a4.368 4.368 0 01-3.09 1.281H30.9c-1.16 0-2.27-.46-3.09-1.28a4.376 4.376 0 01-1.28-3.094v-9.876c0-1.16.46-2.273 1.28-3.093a4.368 4.368 0 013.09-1.281h9.866a4.367 4.367 0 014.37 4.374v9.876z" fill="#fff"/><path d="M35.836 30.061a5.913 5.913 0 00-5.468 3.657 5.929 5.929 0 001.283 6.455 5.915 5.915 0 0010.102-4.188 5.927 5.927 0 00-1.733-4.189 5.915 5.915 0 00-4.184-1.735zm0 9.764a3.833 3.833 0 01-3.544-2.37 3.843 3.843 0 012.795-5.236 3.832 3.832 0 013.938 1.632 3.842 3.842 0 01-3.19 5.974zm6.112-11.369a1.379 1.379 0 00-.975 2.357 1.38 1.38 0 10.975-2.357z" fill="#fff"/><path d="M67.265 35.773c0 17.752-14.129 32.136-31.547 32.136-17.42 0-31.548-14.384-31.548-32.136 0-17.753 14.129-32.136 31.547-32.136 17.42 0 31.548 14.383 31.548 32.136z" fill="#FFC9E7" fill-opacity=".3" stroke="#E4829E" stroke-width=".5"/><g filter="url(#filter0_f)"><path d="M21.416 16.04c4.582-2.085 4.554-4.188 4.183-5.115-1.11-1.25-2.05-.87-3.332-.556-1.68.413-4.128 2.683-6.248 4.726-2.06 1.985-5.38 6.547-5.435 8.446-.048 1.672.85 2.947 1.268 1.557.416-1.39 4.338-6.68 9.564-9.058z" fill="#fff"/></g><path d="M22.882 63.661c14.662 4.44 41.892-1.88 42.033-33.587 4.107 16.972-11.81 44.505-42.033 33.587z" fill="#FFCBE8"/></g><defs><linearGradient id="paint0_linear" x1="43.49" y1="22.172" x2="27.713" y2="50.502" gradientUnits="userSpaceOnUse"><stop stop-color="#4845A2"/><stop offset=".19" stop-color="#8744A1"/><stop offset=".3" stop-color="#A844A1"/><stop offset=".35" stop-color="#AB429A"/><stop offset=".42" stop-color="#B43C88"/><stop offset=".51" stop-color="#C33269"/><stop offset=".6" stop-color="#D7243E"/><stop offset=".88" stop-color="#F9A326"/><stop offset="1" stop-color="#F9DD26"/></linearGradient><clipPath id="clip0"><path fill="#fff" d="M0 0h72v72H0z"/></clipPath><filter id="filter0_f" x="9.582" y="9.059" width="17.167" height="17.632" filterUnits="userSpaceOnUse" color-interpolation-filters="sRGB"><feFlood flood-opacity="0" result="BackgroundImageFix"/><feBlend in="SourceGraphic" in2="BackgroundImageFix" result="shape"/><feGaussianBlur stdDeviation=".5" result="effect1_foregroundBlur"/></filter></defs></svg>
